X:1
T:Descend on Me, 10.10.10.10
T:Descend on Me, 10.10.10.10
T:Scott Werdebaugh, 2018
T:© 2018 Scott Werdebaugh &amp; New Heart Music. May freely copy &amp; use for worship or devotions with no alterations. All other rights reserved.
C:Scott Werdebaugh, 2018
Z:© 2018 Scott Werdebaugh & New Heart Music. May freely copy & use for
Z:worship or devotions with no alterations. All other rights reserved.
%%score ( 1 2 ) 3
L:1/8
Q:1/4=120
M:2/2
K:C
V:1 treble 
V:2 treble 
V:3 bass 
V:1
"^Introspectively" [CE]4 [CE]2 [DF]2 | [EG]4 [DB]4 | [Ec]2 [DB]2 [DA]2 [CA]2 | [B,G]8 | %4
 [Ec]4 [DB]2 [CA]2 | [EG]4 [CE]4 | [EG]2 [EG]2 [DF]2 [CE]2 | [B,D]8 | [G,C]4 [CE]2 [B,D]2 | %9
 [G,C]4 [B,D]4 | [CE]2 [EG]2 [CA]2 [DB]2 | [Ec]8 | [Fc]4 [FB]2 [FA]2 | (G2 F2) [CE]4 | %14
 [G,C]2 [CE]2 [CD]2 [B,D]2 | [G,C]8 |] %16
V:2
 x8 | x8 | x8 | x8 | x8 | x8 | x8 | x8 | x8 | x8 | x8 | x8 | x8 | D4 x4 | x8 | x8 |] %16
V:3
 [C,G,]4 [C,G,]2 [G,B,]2 | [C,C]4 [G,,G,]4 | [C,G,]2 [G,,G,]2 [D,^F,]2 [D,F,]2 | [G,,G,]8 | %4
 [C,G,]4 [G,,G,]2 [F,,=F,]2 | [C,C]4 [C,G,]4 | [C,C]2 [C,C]2 [G,B,]2 [C,G,]2 | [G,,G,]8 | %8
 [C,E,]4 [C,G,]2 [G,,G,]2 | [C,E,]4 [G,,G,]4 | [C,G,]2 [C,C]2 [F,,F,]2 [G,,G,]2 | [C,G,]8 | %12
 [F,A,]4 [G,D]2 [F,C]2 | [G,B,]4 [C,G,]4 | [C,E,]2 [C,G,]2 [F,,A,]2 [G,,G,]2 | [C,E,]8 |] %16

